; HEADER_BLOCK_START
; generated by Creality_Print V7.0.1.4212 on 2026-02-23 at 10:59:12
; total layer number: 543
; filament_density: 1.24
; filament_diameter: 1.75
; max_z_height: 217.10
; creality_uuid: e7c44f60-846d-47b1-b26b-69f5b05d66c2
; HEADER_BLOCK_END

; MINX = 8.40
; MINY = 8.40
; MINZ = 0.00
; MAXX = 211.60
; MAXY = 211.60
; MAXZ = 216.93

; multicolor_method = 0 
; THUMBNAIL_BLOCK_START

;
; THUMBNAIL_BLOCK_END

; THUMBNAIL_BLOCK_START

;
; THUMBNAIL_BLOCK_END

; external perimeters extrusion width = 0.62mm
; perimeters extrusion width = 0.62mm
; infill extrusion width = 0.62mm
; solid infill extrusion width = 0.62mm
; top infill extrusion width = 0.62mm
; first layer extrusion width = 0.62mm

; EXECUTABLE_BLOCK_START
EXCLUDE_OBJECT_DEFINE NAME=puck_light_lamp_shade_v2.stl_id_0_copy_0 CENTER=110,110 POLYGON=[[8.40007,110.517],[10.2514,90.6859],[15.936,71.597],[25.2355,53.9839],[37.7924,38.5235],[53.1243,25.8099],[70.6418,16.3317],[89.6718,10.4531],[109.483,8.4],[129.314,10.2514],[148.403,15.936],[166.016,25.2355],[181.477,37.7924],[194.19,53.1242],[203.668,70.6417],[209.547,89.666],[211.6,109.107],[209.749,129.308],[204.064,148.403],[194.765,166.016],[182.208,181.476],[166.876,194.19],[149.358,203.668],[130.328,209.547],[110.517,211.6],[90.686,209.749],[71.5971,204.064],[53.984,194.765],[38.5236,182.208],[25.81,166.876],[16.3318,149.358],[10.4531,130.328],[8.40007,110.517]]
M73 P0 R609
M106 S0
M106 P2 S0
; max_print_temp = 50,220
;TYPE:Custom
START_PRINT EXTRUDER_TEMP=220 BED_TEMP=50
T0
M204 S2000
M104 S220
G1 Z3 F600
M83
G92 E0
G1 Z1 F600
G90
G21
M83 ; use relative distances for extrusion
SET_PRESSURE_ADVANCE ADVANCE=0.014; Override pressure advance value
G1 E-.8 F1800
G1 Z.3 F30000
M106 S0
;LAYER_CHANGE
;:0.3
;HEIGHT:0.3
;BEFORE_LAYER_CHANGE
;0.3
G92 E0
;TIME_ELAPSED:45.920475
;AFTER_LAYER_CHANGE
;0.3
;_SET_FAN_SPEED_CHANGING_LAYER
SET_VELOCITY_LIMIT ACCEL=500 ACCEL_TO_DECEL=500
SET_VELOCITY_LIMIT SQUARE_CORNER_VELOCITY=6
; OBJECT_ID: 74
EXCLUDE_OBJECT_START NAME=puck_light_lamp_shade_v2.stl_id_0_copy_0
G1 X57.555 Y57.535 Z.7 F30000
G1 Z.3
G1 E.8 F1800
;TYPE:Brim
;WIDTH:0.62
G1 F2400
G1 X58.454 Y56.65 E.08308
G1 X60.079 Y55.101 E.14777
G1 X62.819 Y52.71 E.23942
G1 X65.692 Y50.477 E.23955
G1 X68.798 Y48.312 E.24927
G1 X69.852 Y47.619 E.08307
G1 X71.901 Y46.324 E.15956
G1 X74.902 Y44.606 E.22763
G1 X78.156 Y42.977 E.23957
G1 X81.624 Y41.459 E.24927
G1 X82.794 Y40.985 E.08309
G1 X84.888 Y40.176 E.14777
G1 X88.334 Y39.015 E.23941
G1 X91.843 Y38.052 E.23956
G1 X95.541 Y37.24 E.24927
G1 X96.781 Y37.004 E.08307
G1 X98.992 Y36.618 E.14778
G1 X102.599 Y36.152 E.23942
G1 X106.228 Y35.892 E.23956
G1 X109.874 Y35.819 E.24005
G1 X111.201 Y35.826 E.0874
G1 X113.698 Y35.889 E.16445
G1 X117.148 Y36.127 E.22763
